X:482
T:Var det du eller var det jag
T:Var-det-du-valsen
Z:Jack Campin, http://www.campin.me.uk/
F:Jack Campin's Nine-Note Tunebook
% last edit 30-04-2014
G:waltz song from Blekinge, Sweden
Z:Stefan Linden
M:3/4
L:1/8
Q:1/4=120
K:DDor
(DE)|F2 (FG) (EF)|D3  (E FG)|A2 c2 TB2|A4       :|
 A2 |A2  F2   FF |F2 (A2 c2)|B2 G2  GG|G2 (B2 c2)|
     A3  (G   FE)|D2  F2 FF |E2 C2  C2|D4       |]

